src/svgs/cash-1.svg

<svg xmlns="http://www.w3.org/2000/svg" viewBox="0 0 24 24" width="512" height="512" aria-labelledby="bwcash-1-desc bwcash-1-title"><title id="bwcash-1-title">Cash Icon</title><desc id="bwcash-1-desc">A picture depicting a stack of cash.</desc><path d="M20 2H4a2 2 0 00-2 2v8a2 2 0 002 2h16a2 2 0 002-2V4a2 2 0 00-2-2zm0 8a2.116 2.116 0 00-1.98 2H5.98A2.135 2.135 0 004 10c-.006-.067-.006-3.937 0-4a2.14 2.14 0 001.98-2h12.04A2.122 2.122 0 0020 6c.006.065.006 3.935 0 4zM9 8a3 3 0 113 3 3 3 0 01-3-3zM6 8a1 1 0 111 1 1 1 0 01-1-1zm10 0a1 1 0 111 1 1 1 0 01-1-1zm5 10H3a1 1 0 01-1-1 1 1 0 011-1h18a1 1 0 011 1 1 1 0 01-1 1zm0 4H3a1 1 0 01-1-1 1 1 0 011-1h18a1 1 0 011 1 1 1 0 01-1 1z"/></svg>

<svg xmlns="http://www.w3.org/2000/svg" viewBox="0 0 24 24"><path d="M20,2H4A2,2,0,0,0,2,4v8a2,2,0,0,0,2,2H20a2,2,0,0,0,2-2V4A2,2,0,0,0,20,2Zm0,8a2.116,2.116,0,0,0-1.98,2H5.98A2.135,2.135,0,0,0,4,10c-.006-.067-.006-3.937,0-4A2.14,2.14,0,0,0,5.98,4H18.02A2.122,2.122,0,0,0,20,6C20.006,6.065,20.006,9.935,20,10ZM9,8a3,3,0,1,1,3,3A3,3,0,0,1,9,8ZM6,8A1,1,0,1,1,7,9,1,1,0,0,1,6,8ZM16,8a1,1,0,1,1,1,1A1,1,0,0,1,16,8Zm5,10H3a1,1,0,0,1-1-1H2a1,1,0,0,1,1-1H21a1,1,0,0,1,1,1h0A1,1,0,0,1,21,18Zm0,4H3a1,1,0,0,1-1-1H2a1,1,0,0,1,1-1H21a1,1,0,0,1,1,1h0A1,1,0,0,1,21,22Z"/></svg>
